X:1
T:Mansfield (Barnby), 66.66.88
T:Mansfield (Barnby), 66.66.88
T:Joseph Barnby, 1893
T:Public Domain Courtesy of the Cyber Hymnal™
C:Joseph Barnby, 1893
Z:Public Domain
Z:Courtesy of the Cyber Hymnal™
%%score ( 1 2 ) ( 3 4 )
L:1/8
Q:1/4=115
M:4/4
K:C
V:1 treble 
V:2 treble 
V:3 bass 
V:4 bass 
V:1
 [EG]2 | [Cc]2 [DB]2 [Gd]2 [Gc]2 | [Ge]2 [Gd]2 [Gc]2 [FA]2 | [DG]4 G4 | [EG]6 [EG]2 | %5
 [Gc]2 [GB]2 [Gd]2 [Gc]2 | [Ee]2 [Ad]2 [DB]2 G2 | [GB]4 [^FA]4 | G6 [DG]2 | [EA]2 [DA]2 [DB]2 E2 | %10
 [Ec]2 [Fc]2 [Fd]2 G2 | [Ge]2 (dc) [Ff]2 [Ac]2 | [Ge]4 [Fd]4 | [Ec]6 |] %14
V:2
 x2 | x8 | x8 | x4 (E2 F2) | x8 | x8 | x6 G2 | x8 | G6 x2 | x6 E2 | x6 G2 | x2 E2 x4 | x8 | x6 |] %14
V:3
 [C,G,]2 | [E,G,]2 [D,G,]2 [F,B,]2 [E,C]2 | [G,C]2 [F,B,]2 [E,C]2 [F,C]2 | [G,C]4 [G,,B,]4 | %4
 [C,C]6 [C,C]2 | [E,C]2 [D,D]2 [F,B,]2 [E,C]2 | [G,C]2 [^F,A,]2 [G,B,]2 [B,,D]2 | [D,D]4 [D,C]4 | %8
 [G,B,]6 [G,B,]2 | [G,C]2 [F,A,]2 [E,A,]2 [E,^G,]2 | A,2 [A,C]2 [G,C]2 [G,B,]2 | %11
 C2 [_B,C]2 [A,C]2 [F,C]2 | (C2 A,2) [G,,B,]4 | [C,C]6 |] %14
V:4
 x2 | x8 | x8 | x8 | x8 | x8 | x8 | x8 | x8 | x8 | A,2 x6 | C2 x6 | G,4 x4 | x6 |] %14

